16x16/apps/appimagekit-minetime.svg

<svg height="16" width="16" xmlns="http://www.w3.org/2000/svg"><path d="m8 0c-4.432 0-8 3.568-8 8s3.568 8 8 8 8-3.568 8-8-3.568-8-8-8z" fill="#f4f4f7"/><path d="m5.316 3.5-.541.314-.174.1-.599.346h-.002l.002.002v7.438l.998.8 1-.8v-5.032l2 1.172 2-1.172v5.032l1 .8.998-.8v-7.437l.002-.003-.002-.001-.6-.346-.173-.1-.541-.314-2.684 1.699z" fill="#8b8b8b"/><path d="m5.316 3.5-.541.314-.174.1-.599.346h-.002l.002.002v7.438l.998.8 1-.8v-5.032l2 1.172v-2.642z" opacity=".2"/></svg>

<svg height="16" width="16" xmlns="http://www.w3.org/2000/svg">
    <path d="M8 0C3.568 0 0 3.568 0 8s3.568 8 8 8 8-3.568 8-8-3.568-8-8-8z" fill="#f4f4f7"/>
    <path d="m5.316 3.5-.541.314-.174.1-.599.346H4l.002.002V11.7l.998.8 1-.8V6.668L8 7.84l2-1.172V11.7l1 .8.998-.8V4.263L12 4.26l-.002-.001-.6-.346-.173-.1-.541-.314L8 5.198z" fill="#8b8b8b"/>
    <path d="m5.316 3.5-.541.314-.174.1-.599.346H4l.002.002V11.7l.998.8 1-.8V6.668L8 7.84V5.198z" opacity=".2"/>
</svg>
